src/assets/logo.svg

<svg width="161" height="48" viewBox="0 0 161 48" fill="none" xmlns="http://www.w3.org/2000/svg">
<path d="M24.3333 48C11.08 48 0.333313 37.2533 0.333313 24H24.3333V48Z" fill="#703BF7"/>
<path d="M0.333313 0C13.5866 0 24.3333 10.7467 24.3333 24H0.333313V0Z" fill="#703BF7"/>
<path d="M24.3333 48C37.5866 48 48.3333 37.2533 48.3333 24H24.3333V48Z" fill="#703BF7"/>
<path d="M48.3333 24C48.3333 10.7467 37.5866 0 24.3333 0V24H48.3333Z" fill="#703BF7"/>
<path d="M157.154 34.8603V26.8535C157.154 25.9286 156.855 25.1674 156.258 24.57C155.68 23.9726 154.928 23.674 154.003 23.674C153.386 23.674 152.837 23.8088 152.355 24.0786C151.874 24.3484 151.498 24.7242 151.228 25.2059C150.958 25.6877 150.823 26.2369 150.823 26.8535L149.581 26.1598C149.581 25.0999 149.812 24.1653 150.274 23.356C150.737 22.5274 151.373 21.8818 152.182 21.4193C153.011 20.9376 153.936 20.6967 154.957 20.6967C155.997 20.6967 156.922 20.9665 157.732 21.5061C158.541 22.0264 159.177 22.7104 159.64 23.5583C160.102 24.387 160.333 25.2541 160.333 26.1598V34.8603H157.154ZM147.644 34.8603V20.9858H150.823V34.8603H147.644Z" fill="white"/>
<path d="M140.898 34.8603V20.9858H144.078V34.8603H140.898ZM142.488 18.4421C141.948 18.4421 141.496 18.2591 141.129 17.8929C140.783 17.5268 140.609 17.074 140.609 16.5344C140.609 15.9948 140.783 15.542 141.129 15.1758C141.496 14.8097 141.948 14.6266 142.488 14.6266C143.047 14.6266 143.5 14.8097 143.847 15.1758C144.193 15.542 144.367 15.9948 144.367 16.5344C144.367 17.074 144.193 17.5268 143.847 17.8929C143.5 18.2591 143.047 18.4421 142.488 18.4421Z" fill="white"/>
<path d="M131.874 35.1493C130.487 35.1493 129.234 34.841 128.117 34.2244C127.018 33.5885 126.142 32.7213 125.486 31.6229C124.85 30.5245 124.533 29.2912 124.533 27.923C124.533 26.5548 124.85 25.3312 125.486 24.2521C126.122 23.1537 126.98 22.2865 128.059 21.6506C129.157 21.0147 130.371 20.6967 131.701 20.6967C132.992 20.6967 134.129 20.9954 135.112 21.5928C136.114 22.1902 136.894 23.0091 137.453 24.0497C138.031 25.0903 138.32 26.2754 138.32 27.6051C138.32 27.8363 138.301 28.0772 138.263 28.3277C138.243 28.5589 138.205 28.8191 138.147 29.1081H126.758V26.5067H136.499L135.314 27.5473C135.276 26.6994 135.112 25.9864 134.823 25.4083C134.534 24.8302 134.119 24.387 133.58 24.0786C133.06 23.7703 132.414 23.6161 131.643 23.6161C130.834 23.6161 130.131 23.7896 129.533 24.1364C128.936 24.4833 128.473 24.9747 128.146 25.6106C127.818 26.2273 127.654 26.9692 127.654 27.8363C127.654 28.7035 127.828 29.4646 128.175 30.1198C128.521 30.775 129.013 31.2857 129.649 31.6518C130.285 31.9987 131.017 32.1721 131.846 32.1721C132.559 32.1721 133.214 32.0468 133.811 31.7963C134.428 31.5458 134.948 31.1797 135.372 30.6979L137.395 32.7502C136.721 33.5403 135.902 34.1377 134.938 34.5423C133.975 34.947 132.954 35.1493 131.874 35.1493Z" fill="white"/>
<path d="M117.01 34.8603V15.2047H120.19V34.8603H117.01ZM113.686 23.8763V20.9858H123.514V23.8763H113.686Z" fill="white"/>
<path d="M103.943 35.1493C102.69 35.1493 101.553 34.8314 100.532 34.1955C99.5297 33.5596 98.73 32.702 98.1326 31.6229C97.5545 30.5245 97.2654 29.3008 97.2654 27.9519C97.2654 26.5838 97.5545 25.3601 98.1326 24.281C98.73 23.1826 99.5297 22.3154 100.532 21.6795C101.553 21.0243 102.69 20.6967 103.943 20.6967C105.002 20.6967 105.937 20.928 106.746 21.3904C107.575 21.8337 108.23 22.4503 108.712 23.2404C109.194 24.0305 109.435 24.9265 109.435 25.9286V29.9175C109.435 30.9195 109.194 31.8156 108.712 32.6057C108.249 33.3958 107.604 34.022 106.775 34.4845C105.947 34.9277 105.002 35.1493 103.943 35.1493ZM104.463 32.1432C105.638 32.1432 106.583 31.7482 107.296 30.9581C108.028 30.168 108.394 29.1563 108.394 27.923C108.394 27.0944 108.23 26.3621 107.903 25.7262C107.575 25.0903 107.112 24.5989 106.515 24.2521C105.937 23.8859 105.253 23.7029 104.463 23.7029C103.692 23.7029 103.008 23.8859 102.411 24.2521C101.832 24.5989 101.37 25.0903 101.023 25.7262C100.696 26.3621 100.532 27.0944 100.532 27.923C100.532 28.7516 100.696 29.4839 101.023 30.1198C101.37 30.7557 101.832 31.2568 102.411 31.6229C103.008 31.9698 103.692 32.1432 104.463 32.1432ZM108.192 34.8603V31.1315L108.741 27.7496L108.192 24.3966V20.9858H111.371V34.8603H108.192Z" fill="white"/>
<path d="M89.7131 34.8603V15.2047H92.8927V34.8603H89.7131ZM86.389 23.8763V20.9858H96.2168V23.8763H86.389Z" fill="white"/>
<path d="M79.7212 35.1493C78.9504 35.1493 78.2085 35.053 77.4955 34.8603C76.7825 34.6483 76.1273 34.3593 75.5299 33.9931C74.9326 33.6077 74.4123 33.1452 73.9691 32.6057L75.9924 30.5823C76.4742 31.1411 77.0234 31.5651 77.64 31.8541C78.2759 32.1239 78.9889 32.2588 79.779 32.2588C80.492 32.2588 81.0316 32.1528 81.3977 31.9409C81.7638 31.7289 81.9469 31.4206 81.9469 31.0159C81.9469 30.5919 81.7735 30.2644 81.4266 30.0331C81.0797 29.8019 80.6269 29.6092 80.0681 29.455C79.5285 29.2816 78.9504 29.1081 78.3337 28.9347C77.7364 28.7613 77.1583 28.53 76.5994 28.241C76.0599 27.9327 75.6167 27.5184 75.2698 26.9981C74.9229 26.4778 74.7495 25.8033 74.7495 24.9747C74.7495 24.0883 74.9518 23.3271 75.3565 22.6912C75.7804 22.0553 76.3682 21.5639 77.1197 21.217C77.8905 20.8701 78.8059 20.6967 79.8657 20.6967C80.9834 20.6967 81.9662 20.8991 82.8141 21.3037C83.6812 21.6891 84.4038 22.2769 84.982 23.0669L82.9586 25.0903C82.5539 24.5893 82.0914 24.2135 81.5711 23.963C81.0508 23.7125 80.4535 23.5872 79.779 23.5872C79.1431 23.5872 78.6517 23.6836 78.3048 23.8763C77.958 24.069 77.7845 24.3484 77.7845 24.7145C77.7845 25.0999 77.958 25.3986 78.3048 25.6106C78.6517 25.8226 79.0949 26.0056 79.6345 26.1598C80.1933 26.314 80.7714 26.4874 81.3688 26.6801C81.9854 26.8535 82.5635 27.104 83.1031 27.4316C83.6619 27.74 84.1148 28.1639 84.4617 28.7035C84.8085 29.2238 84.982 29.9079 84.982 30.7557C84.982 32.1047 84.5098 33.1741 83.5656 33.9642C82.6214 34.7543 81.3399 35.1493 79.7212 35.1493Z" fill="white"/>
<path d="M58.5672 34.8603V14.6266H61.8913V34.8603H58.5672ZM60.8507 34.8603V31.8253H72.1816V34.8603H60.8507ZM60.8507 25.9864V23.067H71.1988V25.9864H60.8507ZM60.8507 17.6617V14.6266H72.037V17.6617H60.8507Z" fill="white"/>
</svg>

<svg xmlns="http://www.w3.org/2000/svg" width="161" height="48" fill="none" xmlns:v="https://vecta.io/nano"><g fill="#703bf7"><path d="M24.333 48c-13.253 0-24-10.747-24-24h24v24z"/><path d="M.333 0c13.253 0 24 10.747 24 24h-24V0z"/><path d="M24.333 48c13.253 0 24-10.747 24-24h-24v24z"/><path d="M48.333 24c0-13.253-10.747-24-24-24v24h24z"/></g><path d="M157.154 34.86v-8.007c0-.925-.299-1.686-.896-2.283-.578-.597-1.33-.896-2.255-.896-.617 0-1.166.135-1.648.405a2.89 2.89 0 0 0-1.127 1.127c-.27.482-.405 1.031-.405 1.648l-1.242-.694c0-1.06.231-1.995.693-2.804a4.99 4.99 0 0 1 1.908-1.937c.829-.482 1.754-.723 2.775-.723 1.04 0 1.965.27 2.775.809a5.58 5.58 0 0 1 1.908 2.052 5.27 5.27 0 0 1 .693 2.602v8.701h-3.179zm-9.51 0V20.986h3.179V34.86h-3.179zm-6.746 0V20.986h3.18V34.86h-3.18zm1.59-16.418c-.54 0-.992-.183-1.359-.549-.346-.366-.52-.819-.52-1.358s.174-.992.52-1.359c.367-.366.819-.549 1.359-.549.559 0 1.012.183 1.359.549s.52.819.52 1.359a1.9 1.9 0 0 1-.52 1.358c-.346.366-.8.549-1.359.549zm-10.614 16.707c-1.387 0-2.64-.308-3.757-.925-1.099-.636-1.975-1.503-2.631-2.602-.636-1.098-.953-2.332-.953-3.7s.317-2.592.953-3.671a7.09 7.09 0 0 1 2.573-2.601c1.098-.636 2.312-.954 3.642-.954 1.291 0 2.428.299 3.411.896a6.24 6.24 0 0 1 2.341 2.457c.578 1.041.867 2.226.867 3.555a4.82 4.82 0 0 1-.057.723c-.02.231-.058.491-.116.78h-11.389v-2.601h9.741l-1.185 1.041c-.038-.848-.202-1.561-.491-2.139a3.08 3.08 0 0 0-1.243-1.33c-.52-.308-1.166-.463-1.937-.463-.809 0-1.512.174-2.11.52a3.52 3.52 0 0 0-1.387 1.474c-.328.617-.492 1.359-.492 2.226s.174 1.628.521 2.284.838 1.166 1.474 1.532c.636.347 1.368.52 2.197.52.713 0 1.368-.125 1.965-.376a4.1 4.1 0 0 0 1.561-1.098l2.023 2.052a6.48 6.48 0 0 1-2.457 1.792 7.82 7.82 0 0 1-3.064.607zm-14.864-.289V15.205h3.18V34.86h-3.18zm-3.324-10.984v-2.89h9.828v2.89h-9.828zm-9.743 11.273a6.32 6.32 0 0 1-3.411-.954c-1.002-.636-1.802-1.494-2.399-2.573-.578-1.098-.867-2.322-.867-3.671 0-1.368.289-2.592.867-3.671.597-1.098 1.397-1.966 2.399-2.601 1.021-.655 2.158-.983 3.411-.983 1.059 0 1.994.231 2.803.694.829.443 1.484 1.06 1.966 1.85s.723 1.686.723 2.688v3.989c0 1.002-.241 1.898-.723 2.688a5.05 5.05 0 0 1-1.937 1.879c-.828.443-1.773.665-2.832.665zm.52-3.006c1.175 0 2.12-.395 2.833-1.185.732-.79 1.098-1.802 1.098-3.035 0-.829-.164-1.561-.491-2.197a3.54 3.54 0 0 0-1.388-1.474c-.578-.366-1.262-.549-2.052-.549-.771 0-1.455.183-2.052.549a3.79 3.79 0 0 0-1.388 1.474c-.327.636-.491 1.368-.491 2.197s.164 1.561.491 2.197a4.01 4.01 0 0 0 1.388 1.503c.597.347 1.281.52 2.052.52zm3.729 2.717v-3.729l.549-3.382-.549-3.353v-3.411h3.179V34.86h-3.179zm-18.479 0V15.205h3.18V34.86h-3.18zm-3.324-10.984v-2.89h9.828v2.89h-9.828zm-6.668 11.273c-.771 0-1.513-.096-2.226-.289a8.25 8.25 0 0 1-1.966-.867c-.597-.385-1.118-.848-1.561-1.387l2.023-2.023a4.93 4.93 0 0 0 1.648 1.272c.636.27 1.349.405 2.139.405.713 0 1.253-.106 1.619-.318s.549-.52.549-.925a1.11 1.11 0 0 0-.52-.983c-.347-.231-.8-.424-1.358-.578l-1.734-.52a9.57 9.57 0 0 1-1.734-.694 3.91 3.91 0 0 1-1.33-1.243c-.347-.52-.52-1.195-.52-2.023 0-.886.202-1.648.607-2.283.424-.636 1.012-1.127 1.763-1.474.771-.347 1.686-.52 2.746-.52 1.118 0 2.1.202 2.948.607.867.385 1.59.973 2.168 1.763l-2.023 2.023c-.405-.501-.867-.877-1.388-1.127s-1.118-.376-1.792-.376c-.636 0-1.127.096-1.474.289s-.52.472-.52.838c0 .385.174.684.52.896s.79.395 1.33.549l1.734.52a6.95 6.95 0 0 1 1.734.752 3.74 3.74 0 0 1 1.359 1.272c.347.52.52 1.204.52 2.052 0 1.349-.472 2.418-1.416 3.208s-2.226 1.185-3.844 1.185zm-21.154-.289V14.627h3.324V34.86h-3.324zm2.284 0v-3.035h11.331v3.035H60.851zm0-8.874v-2.919h10.348v2.919H60.851zm0-8.325v-3.035h11.186v3.035H60.851z" fill="#fff"/></svg>
